;FLAVOR:Marlin
;TIME:2210
;Filament used: 0.944703m
;Layer height: 0.13125
;MINX:46.088
;MINY:40.286
;MINZ:0.263
;MAXX:74.238
;MAXY:88.806
;MAXZ:17.948
;Generated with Cura_SteamEngine 4.13.1
M140 S65
M105
M190 S65
M104 S205
M105
M109 S205
M82 ;absolute extrusion mode
G21;(metric values)
G90;(absolute positioning)
M82;(set extruder to absolute mode)
M107;(start with the fan off)
G28;(Home the printer)
G92 E0;(Reset the extruder to 0)
G0 Z5 E5 F500;(Move up and prime the nozzle)
G0 X-1 Z0;(Move outside the printable area)
G1 Y60 E8 F500;(Draw a priming/wiping line to the rear)
G1 X-1;(Move a little closer to the print area)
G1 Y10 E16 F500;(draw more priming/wiping)
G1 E15 F250;(Small retract)
G92 E0;(Zero the extruder)
G92 E0
G92 E0
G1 F2400 E-2.5
;LAYER_COUNT:136
;LAYER:0
M107
G0 F4320 X48.049 Y41.889 Z0.263
;TYPE:SKIRT
G1 F2400 E0
G1 F1800 X48.513 Y41.453 E0.02437
G1 X49.028 Y41.078 E0.04875
G1 X49.585 Y40.771 E0.07309
G1 X50.177 Y40.536 E0.09746
G1 X50.794 Y40.377 E0.12185
G1 X51.426 Y40.296 E0.14623
G1 X51.75 Y40.286 E0.15864
G1 X68.25 Y40.286 E0.79009
G1 X68.886 Y40.326 E0.81448
G1 X69.511 Y40.445 E0.83883
G1 X70.117 Y40.642 E0.86321
G1 X70.693 Y40.913 E0.88757
G1 X71.231 Y41.254 E0.91195
G1 X71.722 Y41.66 E0.93633
G1 X72.158 Y42.124 E0.9607
G1 X72.533 Y42.639 E0.98508
G1 X72.84 Y43.196 E1.00942
G1 X73.075 Y43.788 E1.0338
G1 X73.234 Y44.405 E1.05818
G1 X73.315 Y45.037 E1.08256
G1 X73.325 Y45.361 E1.09497
G1 X73.325 Y61.861 E1.72642
G1 X73.285 Y62.497 E1.75081
G1 X73.241 Y62.728 E1.75981
G1 X73.446 Y63.009 E1.77312
G1 X73.753 Y63.566 E1.79746
G1 X73.988 Y64.158 E1.82184
G1 X74.147 Y64.775 E1.84622
G1 X74.228 Y65.407 E1.87061
G1 X74.238 Y65.731 E1.88301
G1 X74.238 Y83.731 E2.57187
G1 X74.198 Y84.367 E2.59626
G1 X74.079 Y84.992 E2.62061
G1 X73.882 Y85.598 E2.64499
G1 X73.611 Y86.174 E2.66935
G1 X73.27 Y86.712 E2.69373
G1 X72.864 Y87.203 E2.71811
G1 X72.4 Y87.639 E2.74248
G1 X71.885 Y88.014 E2.76686
G1 X71.328 Y88.321 E2.7912
G1 X70.736 Y88.556 E2.81557
G1 X70.119 Y88.715 E2.83996
G1 X69.487 Y88.796 E2.86434
G1 X69.163 Y88.806 E2.87675
G1 X51.163 Y88.806 E3.56561
G1 X50.527 Y88.766 E3.59
G1 X49.902 Y88.647 E3.61434
G1 X49.296 Y88.45 E3.63873
G1 X48.72 Y88.179 E3.66309
G1 X48.182 Y87.838 E3.68747
G1 X47.691 Y87.432 E3.71185
G1 X47.255 Y86.968 E3.73622
G1 X46.88 Y86.453 E3.7606
G1 X46.573 Y85.896 E3.78494
G1 X46.338 Y85.304 E3.80931
G1 X46.179 Y84.687 E3.8337
G1 X46.098 Y84.055 E3.85808
G1 X46.088 Y83.731 E3.87049
G1 X46.088 Y65.731 E4.55935
G1 X46.128 Y65.095 E4.58373
G1 X46.247 Y64.47 E4.60808
G1 X46.444 Y63.864 E4.63247
G1 X46.715 Y63.288 E4.65683
G1 X46.838 Y63.095 E4.66559
G1 X46.766 Y62.817 E4.67658
G1 X46.685 Y62.185 E4.70096
G1 X46.675 Y61.861 E4.71337
G1 X46.675 Y45.361 E5.34482
G1 X46.715 Y44.725 E5.36921
G1 X46.834 Y44.1 E5.39356
G1 X47.031 Y43.494 E5.41794
G1 X47.302 Y42.918 E5.44231
G1 X47.613 Y42.428 E5.46452
G0 F1620 X47.643 Y42.38
G0 X48.049 Y41.889
G0 F4320 X48.394 Y42.035
G1 F1800 X48.854 Y41.628 E5.48802
G1 X49.363 Y41.283 E5.51155
G1 X49.912 Y41.008 E5.53505
G1 X50.493 Y40.806 E5.55859
G1 X51.094 Y40.682 E5.58208
G1 X51.75 Y40.636 E5.60724
G1 X68.25 Y40.636 E6.2387
G1 X68.863 Y40.676 E6.26221
G1 X69.466 Y40.795 E6.28573
G1 X70.048 Y40.992 E6.30924
G1 X70.6 Y41.262 E6.33276
G1 X71.112 Y41.602 E6.35628
G1 X71.576 Y42.005 E6.3798
G1 X71.983 Y42.465 E6.40331
G1 X72.328 Y42.974 E6.42684
G1 X72.603 Y43.523 E6.45034
G1 X72.805 Y44.104 E6.47388
G1 X72.929 Y44.705 E6.49736
G1 X72.975 Y45.361 E6.52253
G1 X72.975 Y61.861 E7.15398
G1 X72.935 Y62.474 E7.17749
G1 X72.87 Y62.805 E7.1904
G1 X72.896 Y62.835 E7.19192
G1 X73.241 Y63.344 E7.21545
G1 X73.516 Y63.893 E7.23895
G1 X73.718 Y64.474 E7.26249
G1 X73.842 Y65.075 E7.28598
G1 X73.888 Y65.731 E7.31114
G1 X73.888 Y83.731 E8
G1 X73.848 Y84.344 E8.02351
G1 X73.729 Y84.947 E8.04704
G1 X73.532 Y85.529 E8.07055
G1 X73.262 Y86.081 E8.09407
G1 X72.922 Y86.593 E8.11759
G1 X72.519 Y87.057 E8.14111
G1 X72.059 Y87.464 E8.16461
G1 X71.55 Y87.809 E8.18815
G1 X71.001 Y88.084 E8.21164
G1 X70.42 Y88.286 E8.23518
G1 X69.819 Y88.41 E8.25867
G1 X69.163 Y88.456 E8.28384
G1 X51.163 Y88.456 E8.97269
G1 X50.55 Y88.416 E8.9962
G1 X49.947 Y88.297 E9.01973
G1 X49.365 Y88.1 E9.04324
G1 X48.813 Y87.83 E9.06676
G1 X48.301 Y87.49 E9.09028
G1 X47.837 Y87.087 E9.1138
G1 X47.43 Y86.627 E9.1373
G1 X47.085 Y86.118 E9.16084
G1 X46.81 Y85.569 E9.18433
G1 X46.608 Y84.988 E9.20787
G1 X46.484 Y84.387 E9.23136
G1 X46.438 Y83.731 E9.25653
G1 X46.438 Y65.731 E9.94539
G1 X46.478 Y65.118 E9.96889
G1 X46.597 Y64.515 E9.99242
G1 X46.794 Y63.933 E10.01593
G1 X47.064 Y63.381 E10.03945
G1 X47.21 Y63.161 E10.04955
G1 X47.195 Y63.118 E10.0513
G1 X47.071 Y62.517 E10.07478
G1 X47.025 Y61.861 E10.09995
G1 X47.025 Y45.361 E10.7314
G1 X47.065 Y44.748 E10.75491
G1 X47.184 Y44.145 E10.77843
G1 X47.381 Y43.563 E10.80195
G1 X47.651 Y43.011 E10.82546
G1 X47.947 Y42.565 E10.84595
G0 F1620 X47.991 Y42.499
G0 X48.394 Y42.035
G0 F4320 X48.738 Y42.188
G1 F1800 X49.194 Y41.811 E10.86859
G1 X49.696 Y41.498 E10.89123
G1 X50.235 Y41.257 E10.91383
G1 X50.803 Y41.09 E10.93648
G1 X51.387 Y41.001 E10.95909
G1 X51.75 Y40.986 E10.973
G1 X68.25 Y40.986 E11.60445
G1 X68.84 Y41.026 E11.62708
G1 X69.419 Y41.145 E11.6497
G1 X69.977 Y41.341 E11.67234
G1 X70.503 Y41.611 E11.69496
G1 X70.988 Y41.949 E11.71759
G1 X71.423 Y42.349 E11.7402
G1 X71.8 Y42.805 E11.76285
G1 X72.113 Y43.307 E11.78549
G1 X72.354 Y43.846 E11.80808
G1 X72.521 Y44.414 E11.83074
G1 X72.61 Y44.998 E11.85335
G1 X72.625 Y45.361 E11.86725
G1 X72.625 Y61.861 E12.4987
G1 X72.585 Y62.451 E12.52133
G1 X72.491 Y62.907 E12.53915
G1 X72.713 Y63.175 E12.55247
G1 X73.026 Y63.677 E12.57511
G1 X73.267 Y64.216 E12.59771
G1 X73.434 Y64.784 E12.62036
G1 X73.523 Y65.368 E12.64297
G1 X73.538 Y65.731 E12.65688
G1 X73.538 Y83.731 E13.34573
G1 X73.498 Y84.321 E13.36837
G1 X73.379 Y84.9 E13.39099
G1 X73.183 Y85.458 E13.41362
G1 X72.913 Y85.984 E13.43625
G1 X72.575 Y86.469 E13.45887
G1 X72.175 Y86.904 E13.48149
G1 X71.719 Y87.281 E13.50413
G1 X71.217 Y87.594 E13.52677
G1 X70.678 Y87.835 E13.54937
G1 X70.11 Y88.002 E13.57202
G1 X69.526 Y88.091 E13.59463
G1 X69.163 Y88.106 E13.60853
G1 X51.163 Y88.106 E14.29739
G1 X50.573 Y88.066 E14.32002
G1 X49.994 Y87.947 E14.34265
G1 X49.436 Y87.751 E14.36528
G1 X48.91 Y87.481 E14.38791
G1 X48.425 Y87.143 E14.41053
G1 X47.99 Y86.743 E14.43315
G1 X47.613 Y86.287 E14.45579
G1 X47.3 Y85.785 E14.47843
G1 X47.059 Y85.246 E14.50102
G1 X46.892 Y84.678 E14.52368
G1 X46.803 Y84.094 E14.54629
G1 X46.788 Y83.731 E14.56019
G1 X46.788 Y65.731 E15.24905
G1 X46.828 Y65.141 E15.27168
G1 X46.947 Y64.562 E15.2943
G1 X47.143 Y64.004 E15.31694
G1 X47.413 Y63.478 E15.33957
G1 X47.598 Y63.213 E15.35193
G1 X47.479 Y62.808 E15.36809
G1 X47.39 Y62.224 E15.3907
G1 X47.375 Y61.861 E15.4046
G1 X47.375 Y45.361 E16.03605
G1 X47.415 Y44.771 E16.05869
G1 X47.534 Y44.192 E16.08131
G1 X47.73 Y43.634 E16.10394
G1 X48 Y43.108 E16.12657
G1 X48.279 Y42.708 E16.14523
G0 F1620 X48.338 Y42.623
G0 X48.738 Y42.188
G0 F4320 X48.685 Y42.753
G1 F1800 X49.082 Y42.348 E16.16694
G1 X49.532 Y42.002 E16.18866
G1 X50.026 Y41.724 E16.21035
G1 X50.554 Y41.518 E16.23204
G1 X51.106 Y41.388 E16.25375
G1 X51.75 Y41.336 E16.27847
G1 X68.25 Y41.336 E16.90993
G1 X68.816 Y41.376 E16.93164
G1 X69.37 Y41.495 E16.95333
G1 X69.902 Y41.691 E16.97502
G1 X70.402 Y41.959 E16.99673
G1 X70.858 Y42.296 E17.01843
G1 X71.263 Y42.693 E17.04014
G1 X71.609 Y43.143 E17.06186
G1 X71.887 Y43.637 E17.08355
G1 X72.093 Y44.165 E17.10524
G1 X72.223 Y44.717 E17.12695
G1 X72.275 Y45.361 E17.15167
G1 X72.275 Y61.861 E17.78313
G1 X72.235 Y62.427 E17.80484
G1 X72.116 Y62.981 E17.82653
G1 X72.176 Y63.063 E17.83041
G1 X72.522 Y63.513 E17.85214
G1 X72.8 Y64.007 E17.87383
G1 X73.006 Y64.535 E17.89552
G1 X73.136 Y65.087 E17.91722
G1 X73.188 Y65.731 E17.94195
G1 X73.188 Y83.731 E18.63081
G1 X73.148 Y84.297 E18.65252
G1 X73.029 Y84.851 E18.67421
G1 X72.833 Y85.383 E18.69591
G1 X72.565 Y85.883 E18.71762
G1 X72.228 Y86.339 E18.73932
G1 X71.831 Y86.744 E18.76102
G1 X71.381 Y87.09 E18.78274
G1 X70.887 Y87.368 E18.80444
G1 X70.359 Y87.574 E18.82613
G1 X69.807 Y87.704 E18.84783
G1 X69.163 Y87.756 E18.87256
G1 X51.163 Y87.756 E19.56142
G1 X50.597 Y87.716 E19.58313
G1 X50.043 Y87.597 E19.60482
G1 X49.511 Y87.401 E19.62651
G1 X49.011 Y87.133 E19.64822
G1 X48.555 Y86.796 E19.66992
G1 X48.15 Y86.399 E19.69163
G1 X47.804 Y85.949 E19.71335
G1 X47.526 Y85.455 E19.73504
G1 X47.32 Y84.927 E19.75673
G1 X47.19 Y84.375 E19.77844
G1 X47.138 Y83.731 E19.80316
G1 X47.138 Y65.731 E20.49202
G1 X47.178 Y65.165 E20.51374
G1 X47.297 Y64.611 E20.53542
G1 X47.493 Y64.079 E20.55712
G1 X47.761 Y63.579 E20.57883
G1 X47.99 Y63.269 E20.59358
G1 X47.907 Y63.057 E20.60229
G1 X47.777 Y62.505 E20.624
G1 X47.725 Y61.861 E20.64872
G1 X47.725 Y45.361 E21.28018
G1 X47.765 Y44.795 E21.30189
G1 X47.884 Y44.241 E21.32358
G1 X48.08 Y43.709 E21.34527
G1 X48.288 Y43.32 E21.36215
G0 F1620 X48.348 Y43.209
G0 X48.685 Y42.753
G0 F4320 X49.031 Y42.889
G1 F1800 X49.424 Y42.516 E21.38289
G1 X49.868 Y42.205 E21.40364
G1 X50.352 Y41.962 E21.42436
G1 X50.867 Y41.794 E21.44509
G1 X51.401 Y41.703 E21.46582
G1 X51.75 Y41.686 E21.4792
G1 X68.25 Y41.686 E22.11065
G1 X68.79 Y41.726 E22.13137
G1 X69.319 Y41.845 E22.15212
G1 X69.824 Y42.04 E22.17284
G1 X70.296 Y42.308 E22.19361
G1 X70.722 Y42.642 E22.21433
G1 X71.095 Y43.035 E22.23506
G1 X71.406 Y43.479 E22.25581
G1 X71.649 Y43.963 E22.27654
G1 X71.817 Y44.478 E22.29727
G1 X71.908 Y45.012 E22.318
G1 X71.925 Y45.361 E22.33137
G1 X71.925 Y61.861 E22.96282
G1 X71.885 Y62.401 E22.98355
G1 X71.766 Y62.93 E23.0043
G1 X71.706 Y63.086 E23.01069
G1 X72.008 Y63.405 E23.0275
G1 X72.319 Y63.849 E23.04825
G1 X72.562 Y64.333 E23.06898
G1 X72.73 Y64.848 E23.08971
G1 X72.821 Y65.382 E23.11044
G1 X72.838 Y65.731 E23.12381
G1 X72.838 Y83.731 E23.81267
G1 X72.798 Y84.271 E23.83339
G1 X72.679 Y84.8 E23.85414
G1 X72.484 Y85.305 E23.87486
G1 X72.216 Y85.777 E23.89563
G1 X71.882 Y86.203 E23.91635
G1 X71.489 Y86.576 E23.93708
G1 X71.045 Y86.887 E23.95783
G1 X70.561 Y87.13 E23.97856
G1 X70.046 Y87.298 E23.99929
G1 X69.512 Y87.389 E24.02002
G1 X69.163 Y87.406 E24.03339
G1 X51.163 Y87.406 E24.72225
G1 X50.623 Y87.366 E24.74297
G1 X50.094 Y87.247 E24.76372
G1 X49.589 Y87.052 E24.78444
G1 X49.117 Y86.784 E24.80521
G1 X48.691 Y86.45 E24.82593
G1 X48.318 Y86.057 E24.84666
G1 X48.007 Y85.613 E24.86741
G1 X47.764 Y85.129 E24.88813
G1 X47.596 Y84.614 E24.90887
G1 X47.505 Y84.08 E24.9296
G1 X47.488 Y83.731 E24.94297
G1 X47.488 Y65.731 E25.63183
G1 X47.528 Y65.191 E25.65255
G1 X47.647 Y64.662 E25.6733
G1 X47.842 Y64.157 E25.69402
G1 X48.11 Y63.685 E25.71479
G1 X48.387 Y63.331 E25.73199
G1 X48.351 Y63.259 E25.73507
G1 X48.183 Y62.744 E25.7558
G1 X48.092 Y62.21 E25.77653
G1 X48.075 Y61.861 E25.78991
G1 X48.075 Y45.361 E26.42136
G1 X48.115 Y44.821 E26.44208
G1 X48.234 Y44.292 E26.46283
G1 X48.429 Y43.787 E26.48355
G1 X48.622 Y43.448 E26.49848
G0 F1620 X48.697 Y43.315
G0 X49.031 Y42.889
G0 F4320 X49.376 Y43.033
G1 F1800 X49.765 Y42.694 E26.51823
G1 X50.201 Y42.419 E26.53795
G1 X50.674 Y42.215 E26.55767
G1 X51.173 Y42.086 E26.57739
G1 X51.75 Y42.036 E26.59956
G1 X68.25 Y42.036 E27.23101
G1 X68.764 Y42.076 E27.25074
G1 X69.265 Y42.195 E27.27045
G1 X69.742 Y42.39 E27.29017
G1 X70.184 Y42.656 E27.30991
G1 X70.578 Y42.987 E27.3296
G1 X70.917 Y43.376 E27.34935
G1 X71.192 Y43.812 E27.36908
G1 X71.396 Y44.285 E27.38879
G1 X71.525 Y44.784 E27.40852
G1 X71.575 Y45.361 E27.43068
G1 X71.575 Y61.861 E28.06213
G1 X71.535 Y62.375 E28.08186
G1 X71.416 Y62.876 E28.10157
G1 X71.289 Y63.187 E28.11443
G1 X71.491 Y63.357 E28.12453
G1 X71.83 Y63.746 E28.14428
G1 X72.105 Y64.182 E28.16401
G1 X72.309 Y64.655 E28.18372
G1 X72.438 Y65.154 E28.20344
G1 X72.488 Y65.731 E28.22561
G1 X72.488 Y83.731 E28.91447
G1 X72.448 Y84.245 E28.9342
G1 X72.329 Y84.746 E28.9539
G1 X72.134 Y85.223 E28.97363
G1 X71.868 Y85.665 E28.99337
G1 X71.537 Y86.059 E29.01306
G1 X71.148 Y86.398 E29.03281
G1 X70.712 Y86.673 E29.05253
G1 X70.239 Y86.877 E29.07225
G1 X69.74 Y87.006 E29.09197
G1 X69.163 Y87.056 E29.11414
G1 X51.163 Y87.056 E29.803
G1 X50.649 Y87.016 E29.82273
G1 X50.148 Y86.897 E29.84243
G1 X49.671 Y86.702 E29.86215
G1 X49.229 Y86.436 E29.8819
G1 X48.835 Y86.105 E29.90159
G1 X48.496 Y85.716 E29.92134
G1 X48.221 Y85.28 E29.94106
G1 X48.017 Y84.807 E29.96078
G1 X47.888 Y84.308 E29.9805
G1 X47.838 Y83.731 E30.00267
G1 X47.838 Y65.731 E30.69153
G1 X47.878 Y65.217 E30.71126
G1 X47.997 Y64.716 E30.73096
G1 X48.192 Y64.239 E30.75068
G1 X48.458 Y63.797 E30.77043
G1 X48.789 Y63.403 E30.79012
G1 X48.604 Y62.937 E30.80931
G1 X48.475 Y62.438 E30.82903
G1 X48.425 Y61.861 E30.8512
G1 X48.425 Y45.361 E31.48265
G1 X48.465 Y44.847 E31.50238
G1 X48.584 Y44.346 E31.52209
G1 X48.779 Y43.869 E31.54181
G1 X48.953 Y43.581 E31.55469
G0 F1620 X49.045 Y43.427
G0 X49.376 Y43.033
G0 F4320 X49.721 Y43.186
G1 F1800 X50.103 Y42.883 E31.57334
G1 X50.53 Y42.648 E31.592
G1 X50.989 Y42.485 E31.61064
G1 X51.75 Y42.386 E31.64001
G1 X68.25 Y42.386 E32.27146
G1 X68.736 Y42.426 E32.29012
G1 X69.209 Y42.545 E32.30879
G1 X69.656 Y42.739 E32.32744
G1 X70.065 Y43.004 E32.34609
G1 X70.425 Y43.332 E32.36473
G1 X70.728 Y43.714 E32.38339
G1 X70.963 Y44.141 E32.40204
G1 X71.126 Y44.6 E32.42068
G1 X71.225 Y45.361 E32.45005
G1 X71.225 Y61.861 E33.0815
G1 X71.185 Y62.347 E33.10016
G1 X71.066 Y62.82 E33.11883
G1 X70.855 Y63.294 E33.13869
G1 X71.338 Y63.702 E33.16288
G1 X71.641 Y64.084 E33.18154
G1 X71.876 Y64.511 E33.20019
G1 X72.039 Y64.97 E33.21883
G1 X72.138 Y65.731 E33.2482
G1 X72.138 Y83.731 E33.93706
G1 X72.098 Y84.217 E33.95572
G1 X71.979 Y84.69 E33.97439
G1 X71.785 Y85.137 E33.99304
G1 X71.52 Y85.546 E34.01169
G1 X71.192 Y85.906 E34.03033
G1 X70.81 Y86.209 E34.04899
G1 X70.383 Y86.444 E34.06764
G1 X69.924 Y86.607 E34.08628
G1 X69.163 Y86.706 E34.11565
G1 X51.163 Y86.706 E34.80451
G1 X50.677 Y86.666 E34.82317
G1 X50.204 Y86.547 E34.84184
G1 X49.757 Y86.353 E34.86048
G1 X49.348 Y86.088 E34.87913
G1 X48.988 Y85.76 E34.89777
G1 X48.685 Y85.378 E34.91643
G1 X48.45 Y84.951 E34.93509
G1 X48.287 Y84.492 E34.95373
G1 X48.188 Y83.731 E34.98309
G1 X48.188 Y65.731 E35.67195
G1 X48.228 Y65.245 E35.69062
G1 X48.347 Y64.772 E35.70928
G1 X48.541 Y64.325 E35.72793
G1 X48.806 Y63.916 E35.74658
G1 X49.248 Y63.465 E35.77075
G1 X49.037 Y63.081 E35.78752
G1 X48.874 Y62.622 E35.80616
G1 X48.775 Y61.861 E35.83552
G1 X48.775 Y45.361 E36.46698
G1 X48.815 Y44.875 E36.48564
G1 X48.934 Y44.402 E36.50431
G1 X49.128 Y43.955 E36.52295
G1 X49.281 Y43.719 E36.53372
G0 F1620 X49.393 Y43.546
G0 X49.721 Y43.186
G0 F4320 X49.74 Y43.673
G1 F1800 X50.064 Y43.349 E36.55125
G1 X50.439 Y43.087 E36.56876
G1 X50.854 Y42.894 E36.58628
G1 X51.296 Y42.776 E36.60378
G1 X51.75 Y42.736 E36.62123
G1 X68.25 Y42.736 E37.25268
G1 X68.706 Y42.776 E37.2702
G1 X69.148 Y42.894 E37.28771
G1 X69.563 Y43.088 E37.30524
G1 X69.938 Y43.351 E37.32277
G1 X70.262 Y43.675 E37.3403
G1 X70.524 Y44.05 E37.35781
G1 X70.717 Y44.465 E37.37532
G1 X70.835 Y44.907 E37.39283
G1 X70.875 Y45.361 E37.41027
G1 X70.875 Y61.861 E38.04173
G1 X70.835 Y62.317 E38.05925
G1 X70.717 Y62.759 E38.07675
G1 X70.523 Y63.174 E38.09429
G1 X70.361 Y63.404 E38.10505
G1 X70.851 Y63.721 E38.12739
G1 X71.175 Y64.045 E38.14492
G1 X71.437 Y64.42 E38.16243
G1 X71.63 Y64.835 E38.17994
G1 X71.748 Y65.277 E38.19745
G1 X71.788 Y65.731 E38.21489
G1 X71.788 Y83.731 E38.90375
G1 X71.748 Y84.187 E38.92127
G1 X71.63 Y84.629 E38.93878
G1 X71.436 Y85.044 E38.95631
G1 X71.173 Y85.419 E38.97384
G1 X70.849 Y85.743 E38.99137
G1 X70.474 Y86.005 E39.00888
G1 X70.059 Y86.198 E39.0264
G1 X69.617 Y86.316 E39.0439
G1 X69.163 Y86.356 E39.06135
G1 X51.163 Y86.356 E39.75021
G1 X50.707 Y86.316 E39.76772
G1 X50.265 Y86.198 E39.78523
G1 X49.85 Y86.004 E39.80276
G1 X49.475 Y85.741 E39.82029
G1 X49.151 Y85.417 E39.83783
G1 X48.889 Y85.042 E39.85533
G1 X48.696 Y84.627 E39.87285
G1 X48.578 Y84.185 E39.89036
G1 X48.538 Y83.731 E39.9078
G1 X48.538 Y65.731 E40.59666
G1 X48.578 Y65.275 E40.61418
G1 X48.696 Y64.833 E40.63168
G1 X48.89 Y64.418 E40.64922
G1 X49.153 Y64.043 E40.66675
G1 X49.477 Y63.719 E40.68428
